X: 31243
T: COTILLION No. 21. WOONSOCKET SETT tune 3
T: Duncan Gray
T: Ha, Ha, the Wooin' O't
%R: march
B: Elias Howe "The Musician's Companion" Part 3 1844 p.124 #3
S: http://imslp.org/wiki/The_Musician's_Companion_(Howe,_Elias)
Z: 2015 John Chambers <jc:trillian.mit.edu>
M: 2/4
L: 1/8
K: C
% - - - - - - - - - - - - - - - - - - - - - - - - - - - - -
GcBd | dec2 | c2df | ecc2 |\
GcBc | dec2 | c2dg | e2cc H|]
egg f/e/ | fff2 | ef/e/ dc | BGG2 |\
GcBc | dec2 | c2dg | e2c"^D.C."c |]
% - - - - - - - - - - Dance description - - - - - - - - - -
%%begintext align
%% First 2 forward and back,
%% swing half round in the centre,
%% swing 6 round that couple,
%% balance 4 with partners,
%% ladies chain,
%% promenade 4.
%% Next 2 the same.
%%endtext
% - - - - - - - - - - - - - - - - - - - - - - - - - - - - -
%%sep 1 1 300
